X:228
T: Kildare Club
N: O'Farrell's Pocket Companion v.3 (Sky ed. p.112)
N: "Irish"
M: 6/8
R: jig
L: 1/8
Q: 320
K: G
e| dGG dcB| dGG e/f/ge| dGG dcB| cAA A2B|
dGG dcB | dGG dBd| g/a/bg ece| dcB cAA| A3-A2 :|
B|: dBd gdB| gdB GAB| dBd gfg| aAA A2B|
dBd gdB| gdB gdB| g/a/bg ece| dcB cAA|
A2B gfe :|
